hornpipes/bobbycaseys.htmlhornpipes/bobbycaseys.htmlhornpipes/bobbycaseys.htmlhornpipes/bobbycaseys.htmlhornpipes/bobbycaseys.htmlhornpipes/bobbycaseys.htmlhornpipes/bobbycaseys.htmlhornpipes/bobbycaseys.htmlhornpipes/bobbycaseys.html<PRE>T:Handy with the Stick
T:Handy with the Stick
M:6/8
L:1/8
R:jig
D:Téada: Téada
Z:Devin McCabe
K:EMin
Bed BcA|GFG BGE|DEG GAB|edB c2A|
!Bed BcA|GFG BGE|DEG GAB|1Bed e2z:|2Bed eaf|
!:gdB GBd|gfa gdB|Bcc c/2c/2cB|ced cBA|
!GBB Acc|GBA GFE|DEG GAB|1Bed eaf:|2Bed edc||
hornpipes/bobbycaseys.htmlhornpipes/bobbycaseys.htmlhornpipes/bobbycaseys.htmlhornpipes/bobbycaseys.htmlhornpipes/bobbycaseys.htmlhornpipes/bobbycaseys.htmlhornpipes/bobbycaseys.html